X: 1
T: Kathleen's Favourite
M: 6/8
L: 1/8
R: jig
K: Gmaj
|: D | GBA BGD | ABA GB/c/d | gbg dBG | BAA A2 D |
GB/c/d g2 g | bge dBG | DE/F/G Adc | BGF G2 :|
|: d | g2 g a^ga | bge dBG | DE/F/G ABG |
[1 BA^G A2 d | g2 g a^ga | bge dBG | DEG Adc | BGF G2 :|
[2 BA^G A2 a | gdg bgb | a^ga c'2 a | bg/f/e dBA | BGG G2 ||
